!!!OTL: Auld Lang Syne
!!!COM: unknown
!!!LYR: Burns, Robert
!!!ODT: 1750 (18th century)
!!!YOR: The Folksong Fake Book
!!!YOY: 2000
!!!AST: Occasional
!!!YEC: Brian Luke, 2001
**kern	**harm
*k[f#c#]	*k[f#c#]
*M4/4	*M4/4
*D:	*D:
*>A	*>A
4A	.
=1	=1
4.d	I
8c#	.
4d	.
4f#	.
=2	=2
4.e	V
8d	.
4e	.
4f#	.
=3	=3
8d	I
4.d	.
4f#	V7/IV
4a	.
=4	=4
2.b	IV
*>B	*>B
4b	.
=5	=5
4.a	I
8f#	.
4f#	.
4d	.
=6	=6
4.e	V7
8d	.
4e	.
4f#	V/vi
=7	=7
4.d	vi
8B	.
4B	ii7
4A	V7
=8	=8
2.d	I;
*>B'	*>B'
4b	V7
=9	=9
4.a	I
8f#	.
4f#	.
4d	.
=10	=10
4.e	V7
8d	.
4e	.
4b	.
=11	=11
4.a	I
8f#	.
4f#	V7/IV
4a	.
=12	=12
2.b	IV
*>B	*>B
4b	.
=13	=13
4.a	I
8f#	.
4f#	.
4d	.
=14	=14
4.e	V7
8d	.
4e	.
8f#	V/vi
8e	.
=15	=15
4.d	vi
8B	.
4B	ii7
4A	V7
=16	=16
2.d	I;
*-	*-
